X: 14554
T: Gan Ainm
R: waltz
M: 3/4
K: Gmajor
Bc|:"G"dg fe dB|"Em"ed B2 GB|"D"dc A2 FA|"G"e2 d2 Bc|
dg fe dB|"Em"ed B2 c2|"D"dc ed cA|1 "G"G4Bc:|2 "G"G4z2||
|:"G"GB dc A2|"D"FA ed BA|"G"GB dc A2|"D"FA ed Bc|
"G"dg fe dB|"Em"ed B2 c2|"D"dc ed cA|1 "G"G4z2:|2 "G"G4^G2||
K: Dmaj
|:"D"A2d2d2|"Em"B2e2e2|"A"dc BA Bc|"D"de fg a2|
A2d2d2|"Em"B2e2e2|"A"dc BA Bc|1 "D"d4B2:|2 "D"d4fg||
|:"D"a2 ag f2|"G"b2a2 gf|"Em"ga gf e2|"A"a2g2 fe|
"D"fg fe df|"Em"g2 f2 ed|"A"cd eA Bc|1 "D"d4 fg:|2 "D"d4z2||

